X:1
T:The Bee Street Fiddlers
M:C|
L:1/8
Q:80
C:Bruce Gandy
S:Hornpipe
K:HP
|: {gef}e{g}d/2e/2{g}A/2{d}A/2{g}B/2{d}A/2|
{g}B/2d/2{G}d/2g/2{a}e/2d/2{g}B/2A/2|
{g}e/2d/2{g}B/2A/2{gGd}G{g}B/2{d}A/2|  !
{g}B/2{d}G/2{e}G/2{d}d/2{g}G/2A/2{g}B/2d/2{gef}e{g}d/2e/2{g}A/2{d}A/2{g}
B/2{d}A/2|
{g}B/2d/2{G}d/2g/2{a}e/2d/2{g}B/2A/2|
{g}G/2{d}B/2{g}A/2{d}G/2{gAd}A{g}B/2d/2|  !
{gef}e{g}B/2g/2{a}B/2A/2{gAGAG}A:| |:
{g}e/2a/2{g}a/2e/2{gf}g{a}e/2a/2|
{g}a/2e/2{gf}g{a}e/2d/2{g}B/2A/2|  !
{g}e/2d/2{g}B/2A/2{gGd}G{g}B/2{d}A/2|
{g}B/2{d}G/2{e}G/2{d}d/2{g}G/2A/2{g}B/2d/2{g}e/2a/2{g}a/2e/2{gf}g{a}e/2a
/2|
{g}a/2e/2{gf}g{a}e/2d/2{g}B/2A/2|  !
{g}G/2{d}B/2{g}A/2{d}G/2{gAd}A{g}B/2d/2|
{gef}e{g}B/2g/2{a}B/2A/2{gAGAG}A:| |:
{g}e/2d/2{G}d/2g/2{AGAG}A{g}e/2d/2|  !
{g}e/2g/2{AGAG}A{g}e/2d/2{g}B/2A/2|
{g}e/2d/2{g}B/2A/2{gGd}{g}B/2{d}A/2|
{g}B/2{d}G/2{e}G/2{d}d/2{g}G/2A/2{g}B/2d/2{g}e/2d/2{G}d/2g/2{AGAG}A{g}e/
2d/2|  !
{g}e/2g/2{AGAG}A{g}e/2d/2{g}B/2A/2|
{g}G/2{d}B/2{g}A/2{d}G/2{gAd}A{g}B/2d/2|
{gef}e{g}B/2g/2{a}B/2A/2{gAGAG}A:| |:  !
{g}e/2d/2e/2g/2{ag}ae/2g/2|
a/2{g}a/2{g}a/2g/2{a}e/2d/2{gdedG}d|
{g}e/2d/2g/2d/2{g}e/2d/2{G}d/2g/2|  !
{BeBG}B{g}B/2A/2{g}G/2A/2{g}B/2d/2{g}e/2d/2e/2g/2{ag}ae/2g/2|
a/2{g}a/2{g}a/2g/2{a}e/2d/2{gdedG}d|
{g}G/2{d}B/2{g}A/2{d}G/2{gAd}A{g}B/2d/2|  !
{gef}e{g}B/2g/2{a}B/2A/2{gAGAG}A:|

